website/media/images/svg/facebook.svg

<svg width="36" height="36" viewBox="0 0 36 36" fill="none" xmlns="http://www.w3.org/2000/svg">
<g clip-path="url(#clip0)">
<path d="M36 18C36 8.05888 27.9411 0 18 0C8.05888 0 0 8.05888 0 18C0 27.9411 8.05888 36 18 36C27.9411 36 36 27.9411 36 18Z" fill="url(#paint0_radial)"/>
<path opacity="0.1" d="M31.5474 6.15777C28.9232 10.9751 25.2119 15.9441 20.5745 20.5814C15.9371 25.2188 10.9682 28.923 6.15794 31.5472C5.85636 31.2851 5.56346 31.012 5.27925 30.7278C3.56134 29.0672 2.19121 27.0812 1.24876 24.8857C0.306314 22.6901 -0.18959 20.3289 -0.210034 17.9397C-0.230479 15.5505 0.224945 13.1811 1.12968 10.9697C2.03442 8.75834 3.37036 6.74922 5.05961 5.0595C6.74886 3.36978 8.75761 2.03327 10.9687 1.12792C13.1799 0.222569 15.5491 -0.233516 17.9383 -0.213739C20.3275 -0.193961 22.6889 0.301283 24.8847 1.24312C27.0805 2.18495 29.0669 3.55452 30.7279 5.27198C31.0122 5.55619 31.2853 5.85145 31.5474 6.15777Z" fill="white"/>
<path d="M15.736 19.2242H13.3817C13.0099 19.2242 12.8796 19.0892 12.8796 18.7173C12.8796 17.7605 12.8796 16.8029 12.8796 15.8444C12.8796 15.475 13.0194 15.3352 13.3841 15.3352H15.736V13.2629C15.708 12.332 15.9314 11.4108 16.3825 10.596C16.8515 9.77348 17.603 9.14905 18.4975 8.83865C19.0781 8.62742 19.6916 8.52155 20.3094 8.52601H22.6375C22.9715 8.52601 23.1112 8.67286 23.1112 8.9997V11.7021C23.1112 12.0408 22.9691 12.1758 22.6375 12.1758C22.0004 12.1758 21.3633 12.1758 20.7286 12.2018C20.0938 12.2279 19.7481 12.5168 19.7481 13.18C19.7338 13.8905 19.7481 14.5868 19.7481 15.3115H22.4836C22.872 15.3115 23.0046 15.4442 23.0046 15.835C23.0046 16.7823 23.0046 17.7344 23.0046 18.6913C23.0046 19.0773 22.8815 19.2005 22.4907 19.2005H19.7338V26.9073C19.7338 27.3194 19.6036 27.4497 19.1986 27.4497H16.2333C15.8757 27.4497 15.736 27.31 15.736 26.9523V19.2242Z" fill="white"/>
</g>
<defs>
<radialGradient id="paint0_radial" cx="0" cy="0" r="1" gradientUnits="userSpaceOnUse" gradientTransform="translate(18 18) scale(18)">
<stop stop-color="#42A5F5"/>
<stop offset="1" stop-color="#1565C0"/>
</radialGradient>
<clipPath id="clip0">
<rect width="36" height="36" fill="white"/>
</clipPath>
</defs>
</svg>

<svg width="36" height="36" viewBox="0 0 36 36" fill="none" xmlns="http://www.w3.org/2000/svg"><g clip-path="url(#clip0)"><path d="M36 18c0-9.941-8.059-18-18-18S0 8.059 0 18s8.059 18 18 18 18-8.059 18-18z" fill="url(#paint0_radial)"/><path opacity=".1" d="M31.547 6.158c-2.624 4.817-6.335 9.786-10.973 14.423-4.637 4.638-9.606 8.342-14.416 10.966a17.184 17.184 0 01-.879-.82A18.001 18.001 0 0124.885 1.244a18 18 0 015.843 4.029c.284.284.557.58.82.886z" fill="#fff"/><path d="M15.736 19.224h-2.354c-.372 0-.502-.135-.502-.507v-2.873c0-.369.14-.509.504-.509h2.352v-2.072a5.184 5.184 0 01.646-2.667 3.91 3.91 0 012.115-1.757 5.19 5.19 0 011.812-.313h2.328c.334 0 .474.147.474.474v2.702c0 .339-.142.474-.474.474-.637 0-1.274 0-1.908.026-.635.026-.98.315-.98.978-.015.71 0 1.407 0 2.132h2.735c.388 0 .52.132.52.523v2.856c0 .386-.123.51-.513.51h-2.757v7.706c0 .412-.13.543-.535.543h-2.966c-.357 0-.497-.14-.497-.498v-7.728z" fill="#fff"/></g><defs><radialGradient id="paint0_radial" cx="0" cy="0" r="1" gradientUnits="userSpaceOnUse" gradientTransform="matrix(18 0 0 18 18 18)"><stop stop-color="#42A5F5"/><stop offset="1" stop-color="#1565C0"/></radialGradient><clipPath id="clip0"><path fill="#fff" d="M0 0h36v36H0z"/></clipPath></defs></svg>
